pycon/static/svg/icons/twitter.svg

<?xml version="1.0" encoding="UTF-8"?>
<svg width="54px" height="54px" viewBox="0 0 54 54" version="1.1" xmlns="http://www.w3.org/2000/svg" xmlns:xlink="http://www.w3.org/1999/xlink">
    <!-- Generator: Sketch 52.3 (67297) - http://www.bohemiancoding.com/sketch -->
    <title>icon/social/twitter</title>
    <desc>Created with Sketch.</desc>
    <defs>
        <path d="M53.6933324,5.35949253 C53.3364674,4.9705254 52.7612574,4.87270133 52.2893503,5.11260321 C51.9958758,5.26166846 51.4441437,5.4573166 50.7891086,5.65063559 C51.6155329,4.56059596 52.2799592,3.34012424 52.5734337,2.24309717 C52.7002147,1.77028084 52.5147388,1.27184391 52.1109178,0.990017424 C51.7070969,0.710520082 51.1694516,0.710520082 50.7656307,0.990017424 C50.1293779,1.43022574 47.0584606,2.75317982 45.1168332,3.18174241 C40.7288023,-0.631067157 35.6223457,-1.02702172 30.3139787,2.04744903 C25.9987295,4.5466211 25.059611,9.62881442 25.2427391,12.7265766 C15.3655609,11.7832731 9.22607403,6.60791399 5.77011815,2.32461723 C5.52829515,2.02415759 5.138561,1.86577576 4.77230481,1.88906721 C4.38726624,1.91701694 4.03979242,2.12896909 3.84257755,2.45737847 C2.20851145,5.19412327 1.7553868,8.21968199 2.53720291,11.2079744 C2.9645018,12.8383756 3.71110096,14.2754577 4.57743773,15.44003 C4.16187782,15.2373944 3.76040468,14.9835177 3.38240951,14.6807289 C3.03493568,14.3965732 2.54894189,14.3430029 2.13807757,14.5316636 C1.72956104,14.7249826 1.46895568,15.1349121 1.46895568,15.5844369 C1.46895568,20.7155423 4.70421872,24.1393847 7.72583232,25.9281677 C7.23749073,25.8699391 6.72801897,25.7627985 6.21385162,25.6067458 C5.77246595,25.4739845 5.29351554,25.6067458 4.98830205,25.9514592 C4.68308855,26.2938434 4.61030687,26.7829638 4.80047836,27.1998806 C6.49793495,30.9241827 9.71441562,33.4862417 13.69393,34.4155703 C10.2191918,36.4395969 5.56820769,37.4318125 1.30930554,36.9450213 C0.757573453,36.8681595 0.231667124,37.215202 0.0579302118,37.7415887 C-0.115806701,38.2679754 0.111929522,38.8456032 0.597923318,39.115784 C7.05905822,42.7143122 12.9003749,44 17.9481366,44 C25.2943906,44 30.9643182,41.2795592 34.4155785,39.003985 C43.7198945,32.878335 49.5189509,21.8801146 48.7113091,12.039479 C50.2021596,10.9471102 52.4325659,8.93007107 53.8154178,6.76163753 C54.1018489,6.32375836 54.0501974,5.74613052 53.6933324,5.35949253 Z" id="path-1"></path>
    </defs>
    <g id="icon/social/twitter" stroke="none" stroke-width="1" fill="none" fill-rule="evenodd">
        <g id="fill/licorice" transform="translate(0.000000, 5.000000)">
            <mask id="mask-2" fill="white">
                <use xlink:href="#path-1"></use>
            </mask>
            <use id="Mask" fill="#000000" xlink:href="#path-1"></use>
            <g mask="url(#mask-2)" fill="#131515" id="Rectangle">
                <g transform="translate(0.000000, -5.000000)">
                    <rect x="0" y="0" width="54" height="54"></rect>
                </g>
            </g>
        </g>
    </g>
</svg>

<svg viewBox="0 0 54 44" xmlns="http://www.w3.org/2000/svg" xmlns:xlink="http://www.w3.org/1999/xlink">
  <path d="M53.693 5.36a1.18 1.18 0 0 0-1.404-.247c-.293.149-.845.344-1.5.538.827-1.09 1.491-2.31 1.784-3.408A1.16 1.16 0 0 0 52.111.99a1.184 1.184 0 0 0-1.345 0c-.637.44-3.708 1.763-5.65 2.192-4.387-3.813-9.494-4.209-14.802-1.135-4.315 2.5-5.254 7.582-5.071 10.68-9.877-.944-16.017-6.12-19.473-10.402a1.205 1.205 0 0 0-.998-.436c-.385.028-.732.24-.93.568C2.21 5.194 1.756 8.22 2.538 11.208a12.404 12.404 0 0 0 2.04 4.232 6.402 6.402 0 0 1-1.195-.76 1.187 1.187 0 0 0-1.244-.148c-.408.193-.669.603-.669 1.052 0 5.132 3.235 8.555 6.257 10.344a8.831 8.831 0 0 1-1.512-.321c-.442-.133-.92 0-1.226.344A1.154 1.154 0 0 0 4.8 27.2c1.698 3.724 4.914 6.286 8.894 7.216-3.475 2.024-8.126 3.016-12.385 2.529a1.164 1.164 0 0 0-.711 2.17C7.059 42.716 12.9 44 17.948 44c7.346 0 13.016-2.72 16.468-4.996C43.72 32.878 49.519 21.88 48.71 12.039c1.491-1.092 3.722-3.109 5.104-5.277a1.144 1.144 0 0 0-.122-1.403z" id="a"/>
</svg>
